packages/icons/src/question.svg

<svg width="24" height="24" viewBox="0 0 24 24" fill="none" xmlns="http://www.w3.org/2000/svg">
<path d="M12.1585 17.5C11.8525 17.5 11.5915 17.3897 11.3756 17.1692C11.1596 16.9486 11.0516 16.6821 11.0516 16.3697C11.0516 16.0572 11.1596 15.7907 11.3756 15.5702C11.5915 15.3496 11.8525 15.2393 12.1585 15.2393C12.4644 15.2393 12.7254 15.3496 12.9413 15.5702C13.1573 15.7907 13.2653 16.0572 13.2653 16.3697C13.2653 16.6821 13.1573 16.9486 12.9413 17.1692C12.7254 17.3897 12.4644 17.5 12.1585 17.5ZM12.1315 13.9987C11.9335 13.9987 11.7535 13.9252 11.5915 13.7782C11.4296 13.6312 11.3216 13.429 11.2676 13.1717C11.2316 12.9327 11.1326 12.7168 10.9707 12.5238C10.8087 12.3308 10.5297 12.0322 10.1338 11.6278C9.80986 11.297 9.53991 10.9386 9.32394 10.5526C9.10798 10.1667 9 9.75313 9 9.31203C9 8.37469 9.31045 7.67168 9.93134 7.20301C10.5522 6.73434 11.2856 6.5 12.1315 6.5C12.7613 6.5 13.3058 6.64703 13.7647 6.9411C14.2236 7.23517 14.597 7.60276 14.885 8.04386C15.011 8.24603 15.0335 8.45739 14.9525 8.67794C14.8715 8.8985 14.705 9.05472 14.4531 9.14662C14.2731 9.22013 14.0931 9.22013 13.9131 9.14662C13.7332 9.0731 13.5712 8.93525 13.4272 8.73308C13.2833 8.53091 13.1078 8.3655 12.9008 8.23684C12.6939 8.10819 12.4374 8.04386 12.1315 8.04386C11.6455 8.04386 11.2811 8.1817 11.0381 8.45739C10.7952 8.73308 10.6737 9.03634 10.6737 9.36717C10.6737 9.67962 10.7637 9.9599 10.9437 10.208C11.1236 10.4561 11.3396 10.7089 11.5915 10.9662C12.0955 11.4073 12.4329 11.7657 12.6039 12.0414C12.7748 12.317 12.8783 12.6938 12.9143 13.1717C12.9323 13.3922 12.8648 13.5852 12.7119 13.7506C12.5589 13.916 12.3654 13.9987 12.1315 13.9987Z" fill="black"/>
</svg>

<svg xmlns="http://www.w3.org/2000/svg" width="24" height="24" fill="none" viewBox="0 0 24 24">
  <path fill="#000" d="M12.159 17.5c-.307 0-.568-.11-.783-.33a1.101 1.101 0 0 1-.324-.8 1.1 1.1 0 0 1 .324-.8c.216-.22.476-.33.783-.33.305 0 .566.11.782.33a1.1 1.1 0 0 1 .324.8c0 .312-.108.579-.324.8-.216.22-.477.33-.783.33Zm-.027-3.501a.785.785 0 0 1-.54-.22 1.096 1.096 0 0 1-.324-.607 1.292 1.292 0 0 0-.297-.648 18.124 18.124 0 0 0-.837-.896 5.078 5.078 0 0 1-.81-1.075A2.5 2.5 0 0 1 9 9.312c0-.937.31-1.64.931-2.109.621-.469 1.355-.703 2.2-.703.63 0 1.175.147 1.634.441.459.294.832.662 1.12 1.103a.691.691 0 0 1 .068.634c-.082.22-.248.377-.5.469a.689.689 0 0 1-.54 0 1.137 1.137 0 0 1-.486-.414 1.82 1.82 0 0 0-.526-.496c-.207-.129-.464-.193-.77-.193-.486 0-.85.138-1.093.413-.243.276-.364.58-.364.91 0 .313.09.593.27.841.18.248.396.5.647.758.505.441.842.8 1.013 1.075.17.276.274.653.31 1.13a.732.732 0 0 1-.202.58.757.757 0 0 1-.58.248Z"/>
</svg>
